!!!OTL: ES WARN EINMAL ZWEI BAUERNSOEHN
!!!ARE: Europa, Mitteleuropa, Deutschland, Baden
!!!SCT: E0050A
!!!YEM: Copyright 1995, estate of Helmut Schaffrath.
**kern
*ICvox
*Ivox
*M3/4
*k[f#]
*G:
{8d
=1
8d
8g
4g
4g
=2
8f#
8g
4.a}
{8d
=3
8d
8f#
4a
4a
=4
8g
8a
4b
8r}
{8g
=5
8b
8b
4cc
4b
=6
8a
8dd
4b
8r}
{8b
=7
8b
8b
4cc
4b
=8
4a
4g
8r}
==
!!!AGN: erzaehlendes Volks - Lied, Sage, Mord, Ballade ?
!!!ONB: ESAC (Essen Associative Code) Database: ERK1
!!!AMT: simple triple
!!!AIN: vox
!!!EED: Helmut Schaffrath
!!!EEV: 1.0
*-
